src/helpers/heroicons/outline/wrench-screwdriver.svg

<svg width="24" height="24" viewBox="0 0 24 24" fill="none" xmlns="http://www.w3.org/2000/svg">
<path d="M11.4194 15.1694L17.25 21C18.2855 22.0355 19.9645 22.0355 21 21C22.0355 19.9645 22.0355 18.2855 21 17.25L15.1233 11.3733M11.4194 15.1694L13.9155 12.1383C14.2315 11.7546 14.6542 11.5132 15.1233 11.3733M11.4194 15.1694L6.76432 20.8219C6.28037 21.4096 5.55897 21.75 4.79768 21.75C3.39064 21.75 2.25 20.6094 2.25 19.2023C2.25 18.441 2.59044 17.7196 3.1781 17.2357L10.0146 11.6056M15.1233 11.3733C15.6727 11.2094 16.2858 11.1848 16.8659 11.2338C16.9925 11.2445 17.1206 11.25 17.25 11.25C19.7353 11.25 21.75 9.23528 21.75 6.75C21.75 6.08973 21.6078 5.46268 21.3523 4.89779L18.0762 8.17397C16.9605 7.91785 16.0823 7.03963 15.8262 5.92397L19.1024 2.64774C18.5375 2.39223 17.9103 2.25 17.25 2.25C14.7647 2.25 12.75 4.26472 12.75 6.75C12.75 6.87938 12.7555 7.00749 12.7662 7.13411C12.8571 8.20956 12.6948 9.39841 11.8617 10.0845L11.7596 10.1686M10.0146 11.6056L5.90901 7.5H4.5L2.25 3.75L3.75 2.25L7.5 4.5V5.90901L11.7596 10.1686M10.0146 11.6056L11.7596 10.1686M18.375 18.375L15.75 15.75M4.86723 19.125H4.87473V19.1325H4.86723V19.125Z"  stroke-width="1.5" stroke-linecap="round" stroke-linejoin="round"/>
</svg>

<svg xmlns="http://www.w3.org/2000/svg" fill="none" viewBox="0 0 24 24" stroke-width="1.5" stroke="currentColor" aria-hidden="true" data-slot="icon">
  <path stroke-linecap="round" stroke-linejoin="round" d="M11.42 15.17 17.25 21A2.652 2.652 0 0 0 21 17.25l-5.877-5.877M11.42 15.17l2.496-3.03c.317-.384.74-.626 1.208-.766M11.42 15.17l-4.655 5.653a2.548 2.548 0 1 1-3.586-3.586l6.837-5.63m5.108-.233c.55-.164 1.163-.188 1.743-.14a4.5 4.5 0 0 0 4.486-6.336l-3.276 3.277a3.004 3.004 0 0 1-2.25-2.25l3.276-3.276a4.5 4.5 0 0 0-6.336 4.486c.091 1.076-.071 2.264-.904 2.95l-.102.085m-1.745 1.437L5.909 7.5H4.5L2.25 3.75l1.5-1.5L7.5 4.5v1.409l4.26 4.26m-1.745 1.437 1.745-1.437m6.615 8.206L15.75 15.75M4.867 19.125h.008v.008h-.008v-.008Z"/>
</svg>
